X: 33604
T: Rakish Paddy
R: reel
M: 4/4
K: Adorian
c3 B c2 AB|cBAG EG G2|Add^c defe|dcAG FGAB|
c3 B c2 AB|cBAG EFGE|DEFG ABcA|dcAG FD D2:|
|:eg g2 ag g2|eg g2 ed^cd|eaag a2 ag|eaag ed^cd|
eg g2 ag g2|f2 fe defg|afge defe|dcAG FD D2:|
c3 B c2 AB|cBAG EG G2|Add^c defe|dcAG FGAB|
c3 B c2 AB|cBAG EFGE|DEFG ABcA|1 dcAG FGAB:|2 dcAG FD D2||
|:eg g2 ag g2|eg g2 edBd|eaa2 bgag|eaag edBd|
eg g2 ag g2|egge defg|afge fde^c|1 dcAG FD D2:|2 dcAG FGAB||

